app/assets/images/twemoji/thumb-down.svg

<svg width="24" height="24" viewBox="0 0 24 24" fill="none" xmlns="http://www.w3.org/2000/svg">
<path d="M21.42 12.0467C21.42 12.3261 21.3533 12.5883 21.2417 12.8267C20.4967 15.23 17.0089 15.0544 12.0478 15.1717C11.2183 15.1911 11.6928 16.1706 11.9839 18.3206C12.1733 19.7189 11.2717 21.8661 9.75611 21.8661C7.25722 21.8661 9.66111 19.895 7.45167 15.0206C6.27111 12.4161 3.63222 13.875 3.63222 11.2589V5.30444C3.63222 4.28611 3.73222 3.30722 5.16444 3.14611C6.55278 2.98944 6.24056 2 8.24333 2H18.2678C19.2889 2 20.1194 2.83111 20.1194 3.85222C20.1194 4.27556 19.9711 4.66111 19.7317 4.97333C20.2983 5.29056 20.6872 5.88944 20.6872 6.58389C20.6872 7.00611 20.5394 7.39167 20.3006 7.70333C20.8689 8.02 21.2589 8.61944 21.2589 9.315C21.2589 9.82 21.0544 10.2778 20.725 10.6128C21.1456 10.9522 21.42 11.4656 21.42 12.0467V12.0467Z" fill="#FFDB5E"/>
<path d="M14.7889 10.195H19.5689C20.2189 10.195 20.8289 10.5428 21.1611 11.1022C21.2978 11.3328 21.2217 11.6311 20.9906 11.7683C20.76 11.9056 20.4617 11.8283 20.3244 11.5978C20.1672 11.3317 19.8767 11.1672 19.5683 11.1672H14.6739C14.1889 11.1672 13.7944 11.5617 13.7944 12.0467C13.7944 12.5317 14.1889 12.9261 14.6739 12.9261H17.9444C18.2128 12.9261 18.4306 13.1439 18.4306 13.4122C18.4306 13.6806 18.2128 13.8983 17.9444 13.8983H14.6733C13.6522 13.8983 12.8217 13.0678 12.8217 12.0467C12.8217 11.4772 13.0856 10.9733 13.4911 10.6333C13.1494 10.2972 12.9367 9.83055 12.9367 9.315C12.9367 8.74389 13.2022 8.23833 13.61 7.89889C13.2706 7.56333 13.06 7.09833 13.06 6.58389C13.06 5.96167 13.3706 5.41278 13.8428 5.07667C13.5517 4.74944 13.3694 4.32333 13.3694 3.85222C13.3694 2.83111 14.2 2.00056 15.2211 2.00056H18.2678C18.9178 2.00056 19.5283 2.34778 19.8606 2.90722C19.9978 3.13778 19.9217 3.43611 19.6911 3.57333C19.46 3.70944 19.1617 3.63444 19.025 3.40389C18.8667 3.13778 18.5761 2.97278 18.2678 2.97278H15.2211C14.7361 2.97278 14.3417 3.36722 14.3417 3.85222C14.3417 4.33722 14.7361 4.73167 15.2211 4.73167H18.8356C19.4856 4.73167 20.0967 5.07944 20.4283 5.63889C20.5656 5.87 20.4894 6.16833 20.2589 6.305C20.0261 6.44444 19.7289 6.36611 19.5928 6.13555C19.4322 5.865 19.1489 5.70389 18.8356 5.70389H14.9117C14.4267 5.70389 14.0322 6.09889 14.0322 6.58389C14.0322 7.06889 14.4267 7.46333 14.9117 7.46333H19.4067C20.0567 7.46333 20.6672 7.81055 20.9994 8.37C21.1367 8.60055 21.0606 8.89889 20.83 9.03611C20.5983 9.17278 20.3006 9.09722 20.1639 8.86667C20.0033 8.59667 19.72 8.43555 19.4067 8.43555H14.7889C14.3039 8.43555 13.9094 8.83 13.9094 9.315C13.9094 9.8 14.3033 10.195 14.7889 10.195V10.195Z" fill="#EE9547"/>
</svg>

<svg width="24" height="24" viewBox="0 0 24 24" fill="none" xmlns="http://www.w3.org/2000/svg">
    <path d="M21.42 12.047c0 .28-.067.541-.178.78-.745 2.403-4.233 2.227-9.194 2.345-.83.02-.355.999-.064 3.149.19 1.398-.712 3.545-2.228 3.545-2.499 0-.095-1.971-2.304-6.845-1.18-2.605-3.82-1.146-3.82-3.762V5.304c0-1.018.1-1.997 1.532-2.158C6.553 2.99 6.241 2 8.244 2h10.024c1.02 0 1.851.831 1.851 1.852 0 .424-.148.81-.387 1.121.566.318.955.916.955 1.61 0 .423-.148.809-.386 1.12.568.317.958.916.958 1.612 0 .505-.205.963-.534 1.298.42.34.695.853.695 1.434z" fill="#FFDB5E"/>
    <path d="M14.789 10.195h4.78c.65 0 1.26.348 1.592.907a.486.486 0 0 1-.837.496.882.882 0 0 0-.756-.43h-4.894a.88.88 0 0 0 0 1.758h3.27a.486.486 0 0 1 0 .972h-3.27a1.854 1.854 0 0 1-1.852-1.851c0-.57.264-1.074.67-1.414a1.845 1.845 0 0 1-.555-1.318c0-.571.265-1.077.673-1.416a1.843 1.843 0 0 1 .233-2.822 1.837 1.837 0 0 1-.474-1.225c0-1.02.831-1.851 1.852-1.851h3.047c.65 0 1.26.347 1.593.906a.486.486 0 0 1-.836.497.886.886 0 0 0-.757-.431H15.22a.88.88 0 0 0 0 1.759h3.615c.65 0 1.26.347 1.592.907a.486.486 0 1 1-.835.497.873.873 0 0 0-.757-.432h-3.924a.88.88 0 0 0 0 1.76h4.495c.65 0 1.26.347 1.592.906a.486.486 0 0 1-.835.497.874.874 0 0 0-.757-.431h-4.618a.88.88 0 0 0 0 1.759z" fill="#EE9547"/>
</svg>
